static/images/icons/jigsaw.svg

<svg height="30" viewBox="0 0 30 30" width="30" xmlns="http://www.w3.org/2000/svg" xmlns:xlink="http://www.w3.org/1999/xlink"><linearGradient id="a" x1="50%" x2="50%" y1="0%" y2="100%"><stop offset="0" stop-color="#fff"/><stop offset="1"/></linearGradient><g fill="none" fill-rule="evenodd"><path d="m4.5 0h21c2.4852814 0 4.5 2.01471863 4.5 4.5v21c0 2.4852814-2.0147186 4.5-4.5 4.5h-21c-2.48528137 0-4.5-2.0147186-4.5-4.5v-21c0-2.48528137 2.01471863-4.5 4.5-4.5z" fill="#309acd"/><path d="m4.5 0c-2.48528137 0-4.5 2.01471863-4.5 4.5v10.5h5.16147451c.51390382 0 .98370072.2903505 1.21352549.75.22394636.4478927.13616322.9888368-.21792706 1.3429271l-.46773311.4677331c-.28130457.2813045-.43933983.6628354-.43933983 1.0606601v.1286797c0 1.2426407 1.00735931 2.25 2.25 2.25s2.25-1.0073593 2.25-2.25v-.1286797c0-.3978247-.15803526-.7793556-.43933983-1.0606601l-.46773311-.4677331c-.35409028-.3540903-.44187342-.8950344-.21792706-1.3429271.22982477-.4596495.69962167-.75 1.21352549-.75h5.16147451v-5.16147451c0-.51390382-.2903505-.98370072-.75-1.21352549-.4478927-.22394636-.9888368-.13616322-1.3429271.21792706l-.4677331.46773311c-.2813045.28130457-.6628354.43933983-1.0606601.43933983h-.1286797c-1.2426407 0-2.25-1.00735931-2.25-2.25s1.0073593-2.25 2.25-2.25h.1286797c.3978247 0 .7793556.15803526 1.0606601.43933983l.4677331.46773311c.3540903.35409028.8950344.44187342 1.3429271.21792706.4596495-.22982477.75-.69962167.75-1.21352549v-5.16147451z" fill="#ffc24b"/><path d="m16.5-3c-2.4852814 0-4.5 2.01471863-4.5 4.5v10.5h5.1614745c.5139038 0 .9837007.2903505 1.2135255.75.2239464.4478927.1361632.9888368-.2179271 1.3429271l-.4677331.4677331c-.2813045.2813045-.4393398.6628354-.4393398 1.0606601v.1286797c0 1.2426407 1.0073593 2.25 2.25 2.25s2.25-1.0073593 2.25-2.25v-.1286797c0-.3978247-.1580353-.7793556-.4393398-1.0606601l-.4677331-.4677331c-.3540903-.3540903-.4418735-.8950344-.2179271-1.3429271.2298248-.4596495.6996217-.75 1.2135255-.75h5.1614745v-5.16147451c0-.51390382-.2903505-.98370072-.75-1.21352549-.4478927-.22394636-.9888368-.13616322-1.3429271.21792706l-.4677331.46773311c-.2813045.28130457-.6628354.43933983-1.0606601.43933983h-.1286797c-1.2426407 0-2.25-1.00735931-2.25-2.25s1.0073593-2.25 2.25-2.25h.1286797c.3978247 0 .7793556.15803526 1.0606601.43933983l.4677331.46773311c.3540903.35409028.8950344.44187342 1.3429271.21792706.4596495-.22982477.75-.69962167.75-1.21352549v-5.16147451z" fill="#96539f" transform="matrix(0 1 -1 0 27 -12)"/><path d="m19.5 9c-2.4852814 0-4.5 2.0147186-4.5 4.5v10.5h5.1614745c.5139038 0 .9837007.2903505 1.2135255.75.2239464.4478927.1361632.9888368-.2179271 1.3429271l-.4677331.4677331c-.2813045.2813045-.4393398.6628354-.4393398 1.0606601v.1286797c0 1.2426407 1.0073593 2.25 2.25 2.25s2.25-1.0073593 2.25-2.25v-.1286797c0-.3978247-.1580353-.7793556-.4393398-1.0606601l-.4677331-.4677331c-.3540903-.3540903-.4418735-.8950344-.2179271-1.3429271.2298248-.4596495.6996217-.75 1.2135255-.75h5.1614745v-5.1614745c0-.5139038-.2903505-.9837007-.75-1.2135255-.4478927-.2239464-.9888368-.1361632-1.3429271.2179271l-.4677331.4677331c-.2813045.2813045-.6628354.4393398-1.0606601.4393398h-.1286797c-1.2426407 0-2.25-1.0073593-2.25-2.25s1.0073593-2.25 2.25-2.25h.1286797c.3978247 0 .7793556.1580353 1.0606601.4393398l.4677331.4677331c.3540903.3540903.8950344.4418735 1.3429271.2179271.4596495-.2298248.75-.6996217.75-1.2135255v-5.1614745z" fill="#80b644" transform="matrix(-1 0 0 -1 45 39)"/><path d="m7.5 12c-2.48528137 0-4.5 2.0147186-4.5 4.5v10.5h5.16147451c.51390382 0 .98370072.2903505 1.21352549.75.22394636.4478927.13616322.9888368-.21792706 1.3429271l-.46773311.4677331c-.28130457.2813045-.43933983.6628354-.43933983 1.0606601v.1286797c0 1.2426407 1.00735931 2.25 2.25 2.25 1.2426407 0 2.25-1.0073593 2.25-2.25v-.1286797c0-.3978247-.1580353-.7793556-.4393398-1.0606601l-.4677331-.4677331c-.3540903-.3540903-.4418735-.8950344-.2179271-1.3429271.2298248-.4596495.6996217-.75 1.2135255-.75h5.1614745v-5.1614745c0-.5139038-.2903505-.9837007-.75-1.2135255-.4478927-.2239464-.9888368-.1361632-1.3429271.2179271l-.4677331.4677331c-.2813045.2813045-.6628354.4393398-1.0606601.4393398h-.1286797c-1.2426407 0-2.25-1.0073593-2.25-2.25s1.0073593-2.25 2.25-2.25h.1286797c.3978247 0 .7793556.1580353 1.0606601.4393398l.4677331.4677331c.3540903.3540903.8950344.4418735 1.3429271.2179271.4596495-.2298248.75-.6996217.75-1.2135255v-5.1614745z" fill="#2293ca" transform="matrix(0 -1 1 0 -12 33)"/><path d="m4.5 0h21c2.4852814 0 4.5 2.01471863 4.5 4.5v21c0 2.4852814-2.0147186 4.5-4.5 4.5h-21c-2.48528137 0-4.5-2.0147186-4.5-4.5v-21c0-2.48528137 2.01471863-4.5 4.5-4.5z" fill="url(#a)" fill-opacity=".3"/></g></svg>

<?xml version="1.0" encoding="UTF-8"?>
<svg width="30px" height="30px" viewBox="0 0 30 30" version="1.1" xmlns="http://www.w3.org/2000/svg" xmlns:xlink="http://www.w3.org/1999/xlink">
    <!-- Generator: Sketch 51.3 (57544) - http://www.bohemiancoding.com/sketch -->
    <title>Group 14 Copy</title>
    <desc>Created with Sketch.</desc>
    <defs>
        <linearGradient x1="50%" y1="0%" x2="50%" y2="100%" id="linearGradient-1">
            <stop stop-color="#FFFFFF" offset="0%"></stop>
            <stop stop-color="#000000" offset="100%"></stop>
        </linearGradient>
    </defs>
    <g id="Page-1" stroke="none" stroke-width="1" fill="none" fill-rule="evenodd">
        <g id="Desktop-HD-Copy-6" transform="translate(-70.000000, -23.000000)">
            <g id="Group-14-Copy" transform="translate(70.000000, 23.000000)">
                <path d="M4.5,0 L25.5,0 C27.9852814,-4.99600361e-16 30,2.01471863 30,4.5 L30,25.5 C30,27.9852814 27.9852814,30 25.5,30 L4.5,30 C2.01471863,30 3.33066907e-16,27.9852814 0,25.5 L0,4.5 C-3.33066907e-16,2.01471863 2.01471863,3.33066907e-16 4.5,0 Z" id="Rectangle-27" fill="#309ACD"></path>
                <path d="M4.5,0 C2.01471863,0 0,2.01471863 0,4.5 L0,15 L5.16147451,15 C5.67537833,15 6.14517523,15.2903505 6.375,15.75 C6.59894636,16.1978927 6.51116322,16.7388368 6.15707294,17.0929271 L5.68933983,17.5606602 C5.40803526,17.8419647 5.25,18.2234956 5.25,18.6213203 L5.25,18.75 C5.25,19.9926407 6.25735931,21 7.5,21 C8.74264069,21 9.75,19.9926407 9.75,18.75 L9.75,18.6213203 C9.75,18.2234956 9.59196474,17.8419647 9.31066017,17.5606602 L8.84292706,17.0929271 C8.48883678,16.7388368 8.40105364,16.1978927 8.625,15.75 C8.85482477,15.2903505 9.32462167,15 9.83852549,15 L15,15 L15,9.83852549 C15,9.32462167 14.7096495,8.85482477 14.25,8.625 C13.8021073,8.40105364 13.2611632,8.48883678 12.9070729,8.84292706 L12.4393398,9.31066017 C12.1580353,9.59196474 11.7765044,9.75 11.3786797,9.75 L11.25,9.75 C10.0073593,9.75 9,8.74264069 9,7.5 C9,6.25735931 10.0073593,5.25 11.25,5.25 L11.3786797,5.25 C11.7765044,5.25 12.1580353,5.40803526 12.4393398,5.68933983 L12.9070729,6.15707294 C13.2611632,6.51116322 13.8021073,6.59894636 14.25,6.375 C14.7096495,6.14517523 15,5.67537833 15,5.16147451 L15,0 L4.5,0 Z" id="Combined-Shape" fill="#FFC24B"></path>
                <path d="M16.5,-3 C14.0147186,-3 12,-0.985281374 12,1.5 L12,12 L17.1614745,12 C17.6753783,12 18.1451752,12.2903505 18.375,12.75 C18.5989464,13.1978927 18.5111632,13.7388368 18.1570729,14.0929271 L17.6893398,14.5606602 C17.4080353,14.8419647 17.25,15.2234956 17.25,15.6213203 L17.25,15.75 C17.25,16.9926407 18.2573593,18 19.5,18 C20.7426407,18 21.75,16.9926407 21.75,15.75 L21.75,15.6213203 C21.75,15.2234956 21.5919647,14.8419647 21.3106602,14.5606602 L20.8429271,14.0929271 C20.4888368,13.7388368 20.4010536,13.1978927 20.625,12.75 C20.8548248,12.2903505 21.3246217,12 21.8385255,12 L27,12 L27,6.83852549 C27,6.32462167 26.7096495,5.85482477 26.25,5.625 C25.8021073,5.40105364 25.2611632,5.48883678 24.9070729,5.84292706 L24.4393398,6.31066017 C24.1580353,6.59196474 23.7765044,6.75 23.3786797,6.75 L23.25,6.75 C22.0073593,6.75 21,5.74264069 21,4.5 C21,3.25735931 22.0073593,2.25 23.25,2.25 L23.3786797,2.25 C23.7765044,2.25 24.1580353,2.40803526 24.4393398,2.68933983 L24.9070729,3.15707294 C25.2611632,3.51116322 25.8021073,3.59894636 26.25,3.375 C26.7096495,3.14517523 27,2.67537833 27,2.16147451 L27,-3 L16.5,-3 Z" id="Combined-Shape-Copy-26" fill="#96539F" transform="translate(19.500000, 7.500000) rotate(-270.000000) translate(-19.500000, -7.500000) "></path>
                <path d="M19.5,9 C17.0147186,9 15,11.0147186 15,13.5 L15,24 L20.1614745,24 C20.6753783,24 21.1451752,24.2903505 21.375,24.75 C21.5989464,25.1978927 21.5111632,25.7388368 21.1570729,26.0929271 L20.6893398,26.5606602 C20.4080353,26.8419647 20.25,27.2234956 20.25,27.6213203 L20.25,27.75 C20.25,28.9926407 21.2573593,30 22.5,30 C23.7426407,30 24.75,28.9926407 24.75,27.75 L24.75,27.6213203 C24.75,27.2234956 24.5919647,26.8419647 24.3106602,26.5606602 L23.8429271,26.0929271 C23.4888368,25.7388368 23.4010536,25.1978927 23.625,24.75 C23.8548248,24.2903505 24.3246217,24 24.8385255,24 L30,24 L30,18.8385255 C30,18.3246217 29.7096495,17.8548248 29.25,17.625 C28.8021073,17.4010536 28.2611632,17.4888368 27.9070729,17.8429271 L27.4393398,18.3106602 C27.1580353,18.5919647 26.7765044,18.75 26.3786797,18.75 L26.25,18.75 C25.0073593,18.75 24,17.7426407 24,16.5 C24,15.2573593 25.0073593,14.25 26.25,14.25 L26.3786797,14.25 C26.7765044,14.25 27.1580353,14.4080353 27.4393398,14.6893398 L27.9070729,15.1570729 C28.2611632,15.5111632 28.8021073,15.5989464 29.25,15.375 C29.7096495,15.1451752 30,14.6753783 30,14.1614745 L30,9 L19.5,9 Z" id="Combined-Shape-Copy-27" fill="#80B644" transform="translate(22.500000, 19.500000) rotate(-180.000000) translate(-22.500000, -19.500000) "></path>
                <path d="M7.5,12 C5.01471863,12 3,14.0147186 3,16.5 L3,27 L8.16147451,27 C8.67537833,27 9.14517523,27.2903505 9.375,27.75 C9.59894636,28.1978927 9.51116322,28.7388368 9.15707294,29.0929271 L8.68933983,29.5606602 C8.40803526,29.8419647 8.25,30.2234956 8.25,30.6213203 L8.25,30.75 C8.25,31.9926407 9.25735931,33 10.5,33 C11.7426407,33 12.75,31.9926407 12.75,30.75 L12.75,30.6213203 C12.75,30.2234956 12.5919647,29.8419647 12.3106602,29.5606602 L11.8429271,29.0929271 C11.4888368,28.7388368 11.4010536,28.1978927 11.625,27.75 C11.8548248,27.2903505 12.3246217,27 12.8385255,27 L18,27 L18,21.8385255 C18,21.3246217 17.7096495,20.8548248 17.25,20.625 C16.8021073,20.4010536 16.2611632,20.4888368 15.9070729,20.8429271 L15.4393398,21.3106602 C15.1580353,21.5919647 14.7765044,21.75 14.3786797,21.75 L14.25,21.75 C13.0073593,21.75 12,20.7426407 12,19.5 C12,18.2573593 13.0073593,17.25 14.25,17.25 L14.3786797,17.25 C14.7765044,17.25 15.1580353,17.4080353 15.4393398,17.6893398 L15.9070729,18.1570729 C16.2611632,18.5111632 16.8021073,18.5989464 17.25,18.375 C17.7096495,18.1451752 18,17.6753783 18,17.1614745 L18,12 L7.5,12 Z" id="Combined-Shape-Copy-28" fill="#2293CA" transform="translate(10.500000, 22.500000) rotate(-90.000000) translate(-10.500000, -22.500000) "></path>
                <path d="M4.5,0 L25.5,0 C27.9852814,-4.99600361e-16 30,2.01471863 30,4.5 L30,25.5 C30,27.9852814 27.9852814,30 25.5,30 L4.5,30 C2.01471863,30 3.33066907e-16,27.9852814 0,25.5 L0,4.5 C-3.33066907e-16,2.01471863 2.01471863,3.33066907e-16 4.5,0 Z" id="Rectangle-27" fill-opacity="0.300000012" fill="url(#linearGradient-1)" style="mix-blend-mode: screen;"></path>
            </g>
        </g>
    </g>
</svg>
